front/public/favicon.svg

<?xml version="1.0" encoding="UTF-8"?>
<svg width="201px" height="50px" viewBox="0 0 201 50" version="1.1" xmlns="http://www.w3.org/2000/svg" xmlns:xlink="http://www.w3.org/1999/xlink">
    <title>Artboard</title>
    <g id="Artboard" stroke="none" stroke-width="1" fill="none" fill-rule="evenodd">
        <g id="6710f39b9f4b928f80ad9d28_logo-saasplex-x-template" transform="translate(3, 5)" fill-rule="nonzero">
            <path d="M0,16.9407826 C0,15.3193826 1.786931,14.3339826 3.158131,15.1992826 L16.122481,23.3801826 C16.720281,23.7573826 17.082781,24.4147826 17.082781,25.1215826 L17.082781,38.2643826 C17.082781,39.8892826 15.288881,40.8740826 13.918081,40.0016826 L0.953671,31.7515826 C0.359691,31.3735826 0,30.7183826 0,30.0143826 L0,16.9407826 Z" id="Path" fill="#FF5F85"></path>
            <path d="M36.617181,16.9407826 C36.617181,15.3193826 34.830281,14.3339826 33.459081,15.1992826 L20.494681,23.3801826 C19.896881,23.7573826 19.534381,24.4147826 19.534381,25.1215826 L19.534381,38.2643826 C19.534381,39.8892826 21.328281,40.8740826 22.699181,40.0016826 L35.663481,31.7515826 C36.257481,31.3735826 36.617181,30.7183826 36.617181,30.0143826 L36.617181,16.9407826 Z" id="Path" fill="#FFC147"></path>
            <path d="M32.451381,8.40256257 L19.871281,0.412662566 C19.005281,-0.137327434 17.899581,-0.137567434 17.033381,0.412022566 L4.479141,8.37759257 C2.829021,9.42458257 2.843021,11.8371826 4.505191,12.8649826 L17.234281,20.7356826 C18.095881,21.2683826 19.185881,21.2628826 20.041881,20.7213826 L32.447181,12.8749826 C34.088481,11.8368826 34.090681,9.44368257 32.451381,8.40256257 Z" id="Path" fill="#4457FF"></path>
        </g>
    </g>
</svg>

<svg height="50" viewBox="0 0 201 50" width="201" xmlns="http://www.w3.org/2000/svg"><g fill="none" transform="translate(3 5)"><path d="m0 16.9407826c0-1.6214 1.786931-2.6068 3.158131-1.7415l12.96435 8.1809c.5978.3772.9603 1.0346.9603 1.7414v13.1428c0 1.6249-1.7939 2.6097-3.1647 1.7373l-12.96441-8.2501c-.59398-.378-.953671-1.0332-.953671-1.7372z" fill="#ff5f85"/><path d="m36.617181 16.9407826c0-1.6214-1.7869-2.6068-3.1581-1.7415l-12.9644 8.1809c-.5978.3772-.9603 1.0346-.9603 1.7414v13.1428c0 1.6249 1.7939 2.6097 3.1648 1.7373l12.9643-8.2501c.594-.378.9537-1.0332.9537-1.7372z" fill="#ffc147"/><path d="m32.451381 8.40256257-12.5801-7.9899c-.866-.54999-1.9717-.55023-2.8379-.00064l-12.55424 7.96557c-1.65012 1.04699-1.63612 3.45959003.02605 4.48739003l12.72909 7.8707c.8616.5327 1.9516.5272 2.8076-.0143l12.4053-7.8464c1.6413-1.0381 1.6435-3.43130003.0042-4.47242003z" fill="#4457ff"/></g></svg>
